Gurmukhi/0A16.svg

<svg enable-background="new 0 0 336 592" viewBox="0 0 336 592" xmlns="http://www.w3.org/2000/svg"><path d="m91.081741 217.170837c-10.862312-.121978-8.952408 1.030381-12.81324-8.559799-.683639-1.698135-1.242462-3.44606-1.890075-5.159225-2.554078-6.756424-1.584649-8.274826 5.79956-8.32341 13.497383-.088822 26.996269.037719 40.493431-.066376 3.671211-.02829 6.16507 1.218338 8.237305 4.383194 10.030075 15.31868 18.519302 31.239517 20.416931 49.848206.366699 3.595916 2.660538 3.697967 5.29242 3.69844 14.831146.002686 29.662277.01416 44.493423.021378 2.999557.001464 6.015732-.203308 8.994705.043533 4.329254.358765 5.840271-1.290741 5.779694-5.707398-.210266-15.328048.067032-30.662796-.142456-45.990875-.061188-4.477524 1.192596-6.278381 5.913421-6.131592 15.641663.48639 31.294266-.601287 46.94632.14827 2.678589.128265 4.29364.844406 5.174103 3.539078 1.290954 3.95108 3.0419 7.749618 4.414001 11.677048 1.612824 4.616348.23877 6.49765-4.801483 6.544693-8.33136.077804-16.672943.252044-24.992599-.06955-4.80774-.185852-6.217362 1.437637-6.203324 6.248428.15564 53.325013.099381 106.650605.098999 159.976075 0 1.499664.072922 3.006103-.041549 4.497619-.261597 3.409149-2.121155 5.095795-5.346558 3.584137-6.329437-2.96643-12.489258-6.29544-18.712067-9.488464-2.581375-1.324494-2.368179-3.755402-2.367828-6.100952.001724-11.664917.000336-23.329834-.013214-34.994751-.001129-.963623-.101227-1.927124-.197342-3.638642-7.288437 6.689789-15.157272 11.160035-24.279114 13.055359-16.766174 3.483765-32.461914.324799-47.068939-8.284057-17.738228-10.454255-30.653107-25.369934-39.813515-43.716919-1.524574-3.053559-1.057899-5.040345 1.254913-7.461182 9.813096-10.271454 17.494446-21.834991 20.276864-36.070084 2.348663-12.015976.499321-23.476532-4.752556-34.490966-1.230332-2.580292-3.156815-3.064042-5.668206-3.044327-7.997894.062836-15.996543.029571-24.482025.033111m124.71254 81.846466c.006805-7.831024-.032532-15.662536.045136-23.492858.027679-2.790528-.783677-4.378418-3.941605-4.366669-19.493897.07254-38.988098.063507-58.482208.05487-2.111924-.000946-3.460694.834992-4.056473 2.916962-3.041077 10.627167-8.7995 19.692322-16.085419 27.874573-1.459946 1.639557-2.011856 3.123962-.354828 5.226074 18.862137 23.92862 46.860443 26.580048 68.255036 11.595551 6.715011-4.703125 12.548736-10.454651 14.620361-19.808503z"/></svg>

<svg version="1.1" id="Layer_1" xmlns="http://www.w3.org/2000/svg" xmlns:xlink="http://www.w3.org/1999/xlink" x="0px" y="0px"
	 width="100%" viewBox="0 0 336 592" enable-background="new 0 0 336 592" xml:space="preserve">
<path fill="#000000" opacity="1.000000" stroke="none" 
	d="
M91.081741,217.170837 
	C80.219429,217.048859 82.129333,218.201218 78.268501,208.611038 
	C77.584862,206.912903 77.026039,205.164978 76.378426,203.451813 
	C73.824348,196.695389 74.793777,195.176987 82.177986,195.128403 
	C95.675369,195.039581 109.174255,195.166122 122.671417,195.062027 
	C126.342628,195.033737 128.836487,196.280365 130.908722,199.445221 
	C140.938797,214.763901 149.428024,230.684738 151.325653,249.293427 
	C151.692352,252.889343 153.986191,252.991394 156.618073,252.991867 
	C171.449219,252.994553 186.280350,253.006027 201.111496,253.013245 
	C204.111053,253.014709 207.127228,252.809937 210.106201,253.056778 
	C214.435455,253.415543 215.946472,251.766037 215.885895,247.349380 
	C215.675629,232.021332 215.952927,216.686584 215.743439,201.358505 
	C215.682251,196.880981 216.936035,195.080124 221.656860,195.226913 
	C237.298523,195.713303 252.951126,194.625626 268.603180,195.375183 
	C271.281769,195.503448 272.896820,196.219589 273.777283,198.914261 
	C275.068237,202.865341 276.819183,206.663879 278.191284,210.591309 
	C279.804108,215.207657 278.430054,217.088959 273.389801,217.136002 
	C265.058441,217.213806 256.716858,217.388046 248.397202,217.066452 
	C243.589462,216.880600 242.179840,218.504089 242.193878,223.314880 
	C242.349518,276.639893 242.293259,329.965485 242.292877,383.290955 
	C242.292877,384.790619 242.365799,386.297058 242.251328,387.788574 
	C241.989731,391.197723 240.130173,392.884369 236.904770,391.372711 
	C230.575333,388.406281 224.415512,385.077271 218.192703,381.884247 
	C215.611328,380.559753 215.824524,378.128845 215.824875,375.783295 
	C215.826599,364.118378 215.825211,352.453461 215.811661,340.788544 
	C215.810532,339.824921 215.710434,338.861420 215.614319,337.149902 
	C208.325882,343.839691 200.457047,348.309937 191.335205,350.205261 
	C174.569031,353.689026 158.873291,350.530060 144.266266,341.921204 
	C126.528038,331.466949 113.613159,316.551270 104.452751,298.204285 
	C102.928177,295.150726 103.394852,293.163940 105.707664,290.743103 
	C115.520760,280.471649 123.202110,268.908112 125.984528,254.673019 
	C128.333191,242.657043 126.483849,231.196487 121.231972,220.182053 
	C120.001640,217.601761 118.075157,217.118011 115.563766,217.137726 
	C107.565872,217.200562 99.567223,217.167297 91.081741,217.170837 
M215.794281,299.017303 
	C215.801086,291.186279 215.761749,283.354767 215.839417,275.524445 
	C215.867096,272.733917 215.055740,271.146027 211.897812,271.157776 
	C192.403915,271.230316 172.909714,271.221283 153.415604,271.212646 
	C151.303680,271.211700 149.954910,272.047638 149.359131,274.129608 
	C146.318054,284.756775 140.559631,293.821930 133.273712,302.004181 
	C131.813766,303.643738 131.261856,305.128143 132.918884,307.230255 
	C151.781021,331.158875 179.779327,333.810303 201.173920,318.825806 
	C207.888931,314.122681 213.722656,308.371155 215.794281,299.017303 
z"/>
</svg>
